static/img/in-field/lists-disabled-dark.svg

<svg fill="none" height="57" viewBox="0 0 510 57" width="510" xmlns="http://www.w3.org/2000/svg" xmlns:xlink="http://www.w3.org/1999/xlink"><mask id="a" fill="#fff"><path d="m0 .199951h510v56.000049h-510z" fill="#fff"/></mask><g opacity=".4"><path d="m0 .199951h510v56.000049h-510z" fill="#464b52"/><path d="m18.1484 37.2v-15.7051h1.8262v14.0722h6.9717v1.6329zm13.2588-11.7735v11.7735h-1.7832v-11.7735zm-.8701-4.4043c.2936 0 .5443.0967.752.2901.2148.1862.3222.4798.3222.8808 0 .3939-.1074.6875-.3222.8809-.2077.1933-.4584.29-.752.29-.3079 0-.5657-.0967-.7734-.29-.2005-.1934-.3008-.487-.3008-.8809 0-.401.1003-.6946.3008-.8808.2077-.1934.4655-.2901.7734-.2901zm12.5176 12.9551c0 .7519-.1898 1.3857-.5693 1.9014-.3724.5084-.9096.8916-1.6114 1.1494-.6946.2578-1.5254.3867-2.4922.3867-.8235 0-1.5361-.0645-2.1377-.1934-.6015-.1289-1.1279-.3115-1.5791-.5478v-1.6436c.4799.2364 1.0528.4512 1.7188.6446.666.1933 1.3463.29 2.041.29 1.0169 0 1.7546-.1647 2.2129-.4941.4583-.3295.6875-.7771.6875-1.3428 0-.3223-.0931-.6052-.2793-.8486-.179-.2507-.4834-.4906-.9131-.7198-.4297-.2363-1.0241-.4941-1.7832-.7734-.7519-.2865-1.4036-.5693-1.9551-.8486-.5442-.2865-.9668-.6338-1.2675-1.042-.2937-.4082-.4405-.9382-.4405-1.5899 0-.9954.4011-1.7581 1.2031-2.2881.8093-.5371 1.8692-.8056 3.1797-.8056.709 0 1.3715.0716 1.9873.2148.6231.1361 1.2032.3223 1.7403.5586l-.6016 1.4287c-.487-.2077-1.0062-.3831-1.5576-.5263-.5514-.1433-1.1136-.2149-1.6865-.2149-.8236 0-1.4574.1361-1.9014.4082-.4368.2721-.6553.6445-.6553 1.1172 0 .3652.1003.666.3008.9023.2077.2364.5371.4584.9883.6661.4512.2076 1.0456.4511 1.7832.7304.7376.2722 1.375.555 1.9121.8487.5371.2864.9489.6373 1.2354 1.0527.2936.4082.4404.9346.4404 1.5791zm6.9209 1.9766c.2936 0 .5944-.0251.9023-.0752.308-.0502.5586-.111.752-.1827v1.3858c-.2077.0931-.4977.1719-.8701.2363-.3653.0645-.7233.0967-1.0743.0967-.623 0-1.1888-.1074-1.6972-.3223-.5085-.222-.9167-.5944-1.2246-1.1172-.3008-.5227-.4512-1.2461-.4512-2.1699v-6.9824h-1.6758v-.8701l1.6865-.6983.709-2.5566h1.0742v2.7285h3.4483v1.3965h-3.4483v6.9287c0 .7376.1683 1.2891.5049 1.6543.3438.3652.7985.5479 1.3643.5479zm10.5224 1.2461v-15.7051h1.8262v15.7051zm9.9288-1.2461c.2936 0 .5944-.0251.9023-.0752.3079-.0502.5586-.111.752-.1827v1.3858c-.2077.0931-.4978.1719-.8702.2363-.3652.0645-.7233.0967-1.0742.0967-.623 0-1.1888-.1074-1.6972-.3223-.5085-.222-.9167-.5944-1.2247-1.1172-.3007-.5227-.4511-1.2461-.4511-2.1699v-6.9824h-1.6758v-.8701l1.6865-.6983.709-2.5566h1.0742v2.7285h3.4483v1.3965h-3.4483v6.9287c0 .7376.1683 1.2891.5049 1.6543.3437.3652.7985.5479 1.3643.5479zm8.8222-10.7422c1.0026 0 1.862.222 2.5781.666.7162.444 1.264 1.067 1.6436 1.8691.3796.7949.5693 1.7259.5693 2.793v1.1064h-8.1318c.0215 1.3822.3652 2.4349 1.0313 3.1582.666.7234 1.6041 1.085 2.8144 1.085.7448 0 1.4037-.068 1.9766-.2041s1.1673-.3366 1.7832-.6016v1.5684c-.5944.265-1.1852.4583-1.7725.5801-.5801.1217-1.2676.1826-2.0625.1826-1.1315 0-2.1198-.2292-2.9648-.6875-.8379-.4655-1.4896-1.1458-1.9551-2.041s-.6983-1.9909-.6983-3.2871c0-1.2676.2113-2.3633.6338-3.2871.4297-.931 1.0313-1.6472 1.8047-2.1485.7806-.5013 1.6973-.7519 2.75-.7519zm-.0215 1.4609c-.9524 0-1.7115.3115-2.2773.9346-.5658.623-.9023 1.4931-1.0098 2.6103h6.2305c-.0072-.7018-.1182-1.3177-.333-1.8476-.2077-.5371-.5264-.9525-.9561-1.2461-.4297-.3008-.9811-.4512-1.6543-.4512zm20.8755-1.4609c1.296 0 2.273.3401 2.932 1.0205.659.6732.988 1.7581.988 3.2549v7.7129h-1.761v-7.627c0-.9525-.208-1.665-.623-2.1377-.409-.4798-1.017-.7197-1.8265-.7197-1.1387 0-1.9658.3294-2.4814.9883-.5157.6588-.7735 1.6292-.7735 2.9111v6.585h-1.7724v-7.627c0-.6374-.0931-1.1673-.2793-1.5898-.1791-.4226-.4512-.7377-.8164-.9454-.3581-.2148-.8129-.3222-1.3643-.3222-.7806 0-1.4072.1611-1.8799.4834-.4726.3222-.8164.8021-1.0312 1.4394-.2077.6302-.3116 1.4073-.3116 2.3311v6.2305h-1.7832v-11.7735h1.4395l.2685 1.6651h.0967c.2364-.4083.5336-.752.8916-1.0313.3581-.2793.7591-.4906 1.2032-.6338.444-.1432.9166-.2148 1.4179-.2148.8952 0 1.6436.1683 2.2451.5049.6088.3294 1.0492.8343 1.3213 1.5146h.0967c.3867-.6803.9167-1.1852 1.5898-1.5146.6732-.3366 1.4109-.5049 2.2134-.5049z" fill="#fff"/><path d="m510 55.2h-510v2h510z" fill="#7d808d" mask="url(#a)"/></g></svg>

<svg width="510" height="57" viewBox="0 0 510 57" fill="none" xmlns="http://www.w3.org/2000/svg"><g opacity=".4"><mask id="path-1-inside-1_7345_83159" fill="#fff"><path d="M0 0.199951H510V56.2H0V0.199951Z"/></mask><path d="M0 0.199951H510V56.2H0V0.199951Z" fill="#464B52"/><path d="M18.1484 37.2V21.4949H19.9746V35.5671H26.9463V37.2H18.1484ZM31.4072 25.4265V37.2H29.624V25.4265H31.4072ZM30.5371 21.0222C30.8307 21.0222 31.0814 21.1189 31.2891 21.3123C31.5039 21.4985 31.6113 21.7921 31.6113 22.1931C31.6113 22.587 31.5039 22.8806 31.2891 23.074C31.0814 23.2673 30.8307 23.364 30.5371 23.364C30.2292 23.364 29.9714 23.2673 29.7637 23.074C29.5632 22.8806 29.4629 22.587 29.4629 22.1931C29.4629 21.7921 29.5632 21.4985 29.7637 21.3123C29.9714 21.1189 30.2292 21.0222 30.5371 21.0222ZM43.0547 33.9773C43.0547 34.7292 42.8649 35.363 42.4854 35.8787C42.113 36.3871 41.5758 36.7703 40.874 37.0281C40.1794 37.2859 39.3486 37.4148 38.3818 37.4148C37.5583 37.4148 36.8457 37.3503 36.2441 37.2214C35.6426 37.0925 35.1162 36.9099 34.665 36.6736V35.03C35.1449 35.2664 35.7178 35.4812 36.3838 35.6746C37.0498 35.8679 37.7301 35.9646 38.4248 35.9646C39.4417 35.9646 40.1794 35.7999 40.6377 35.4705C41.096 35.141 41.3252 34.6934 41.3252 34.1277C41.3252 33.8054 41.2321 33.5225 41.0459 33.2791C40.8669 33.0284 40.5625 32.7885 40.1328 32.5593C39.7031 32.323 39.1087 32.0652 38.3496 31.7859C37.5977 31.4994 36.946 31.2166 36.3945 30.9373C35.8503 30.6508 35.4277 30.3035 35.127 29.8953C34.8333 29.4871 34.6865 28.9571 34.6865 28.3054C34.6865 27.31 35.0876 26.5473 35.8896 26.0173C36.6989 25.4802 37.7588 25.2117 39.0693 25.2117C39.7783 25.2117 40.4408 25.2833 41.0566 25.4265C41.6797 25.5626 42.2598 25.7488 42.7969 25.9851L42.1953 27.4138C41.7083 27.2061 41.1891 27.0307 40.6377 26.8875C40.0863 26.7442 39.5241 26.6726 38.9512 26.6726C38.1276 26.6726 37.4938 26.8087 37.0498 27.0808C36.613 27.3529 36.3945 27.7253 36.3945 28.198C36.3945 28.5632 36.4948 28.864 36.6953 29.1003C36.903 29.3367 37.2324 29.5587 37.6836 29.7664C38.1348 29.974 38.7292 30.2175 39.4668 30.4968C40.2044 30.769 40.8418 31.0518 41.3789 31.3455C41.916 31.6319 42.3278 31.9828 42.6143 32.3982C42.9079 32.8064 43.0547 33.3328 43.0547 33.9773ZM49.9756 35.9539C50.2692 35.9539 50.57 35.9288 50.8779 35.8787C51.1859 35.8285 51.4365 35.7677 51.6299 35.696V37.0818C51.4222 37.1749 51.1322 37.2537 50.7598 37.3181C50.3945 37.3826 50.0365 37.4148 49.6855 37.4148C49.0625 37.4148 48.4967 37.3074 47.9883 37.0925C47.4798 36.8705 47.0716 36.4981 46.7637 35.9753C46.4629 35.4526 46.3125 34.7292 46.3125 33.8054V26.823H44.6367V25.9529L46.3232 25.2546L47.0322 22.698H48.1064V25.4265H51.5547V26.823H48.1064V33.7517C48.1064 34.4893 48.2747 35.0408 48.6113 35.406C48.9551 35.7712 49.4098 35.9539 49.9756 35.9539ZM60.498 37.2V21.4949H62.3242V37.2H60.498ZM70.4268 35.9539C70.7204 35.9539 71.0212 35.9288 71.3291 35.8787C71.637 35.8285 71.8877 35.7677 72.0811 35.696V37.0818C71.8734 37.1749 71.5833 37.2537 71.2109 37.3181C70.8457 37.3826 70.4876 37.4148 70.1367 37.4148C69.5137 37.4148 68.9479 37.3074 68.4395 37.0925C67.931 36.8705 67.5228 36.4981 67.2148 35.9753C66.9141 35.4526 66.7637 34.7292 66.7637 33.8054V26.823H65.0879V25.9529L66.7744 25.2546L67.4834 22.698H68.5576V25.4265H72.0059V26.823H68.5576V33.7517C68.5576 34.4893 68.7259 35.0408 69.0625 35.406C69.4062 35.7712 69.861 35.9539 70.4268 35.9539ZM79.249 25.2117C80.2516 25.2117 81.111 25.4337 81.8271 25.8777C82.5433 26.3217 83.0911 26.9447 83.4707 27.7468C83.8503 28.5417 84.04 29.4727 84.04 30.5398V31.6462H75.9082C75.9297 33.0284 76.2734 34.0811 76.9395 34.8044C77.6055 35.5278 78.5436 35.8894 79.7539 35.8894C80.4987 35.8894 81.1576 35.8214 81.7305 35.6853C82.3034 35.5492 82.8978 35.3487 83.5137 35.0837V36.6521C82.9193 36.9171 82.3285 37.1104 81.7412 37.2322C81.1611 37.3539 80.4736 37.4148 79.6787 37.4148C78.5472 37.4148 77.5589 37.1856 76.7139 36.7273C75.876 36.2618 75.2243 35.5815 74.7588 34.6863C74.2933 33.7911 74.0605 32.6954 74.0605 31.3992C74.0605 30.1316 74.2718 29.0359 74.6943 28.1121C75.124 27.1811 75.7256 26.4649 76.499 25.9636C77.2796 25.4623 78.1963 25.2117 79.249 25.2117ZM79.2275 26.6726C78.2751 26.6726 77.516 26.9841 76.9502 27.6072C76.3844 28.2302 76.0479 29.1003 75.9404 30.2175H82.1709C82.1637 29.5157 82.0527 28.8998 81.8379 28.3699C81.6302 27.8328 81.3115 27.4174 80.8818 27.1238C80.4521 26.823 79.9007 26.6726 79.2275 26.6726ZM100.103 25.2117C101.399 25.2117 102.376 25.5518 103.035 26.2322C103.694 26.9054 104.023 27.9903 104.023 29.4871V37.2H102.262V29.573C102.262 28.6205 102.054 27.908 101.639 27.4353C101.23 26.9555 100.622 26.7156 99.8125 26.7156C98.6738 26.7156 97.8467 27.045 97.3311 27.7039C96.8154 28.3627 96.5576 29.3331 96.5576 30.615V37.2H94.7852V29.573C94.7852 28.9356 94.6921 28.4057 94.5059 27.9832C94.3268 27.5606 94.0547 27.2455 93.6895 27.0378C93.3314 26.823 92.8766 26.7156 92.3252 26.7156C91.5446 26.7156 90.918 26.8767 90.4453 27.199C89.9727 27.5212 89.6289 28.0011 89.4141 28.6384C89.2064 29.2686 89.1025 30.0457 89.1025 30.9695V37.2H87.3193V25.4265H88.7588L89.0273 27.0916H89.124C89.3604 26.6833 89.6576 26.3396 90.0156 26.0603C90.3737 25.781 90.7747 25.5697 91.2188 25.4265C91.6628 25.2833 92.1354 25.2117 92.6367 25.2117C93.5319 25.2117 94.2803 25.38 94.8818 25.7166C95.4906 26.046 95.931 26.5509 96.2031 27.2312H96.2998C96.6865 26.5509 97.2165 26.046 97.8896 25.7166C98.5628 25.38 99.3005 25.2117 100.103 25.2117Z" fill="#fff"/><path d="M510 55.2H0V57.2H510V55.2Z" fill="#7D808D" mask="url(#path-1-inside-1_7345_83159)"/></g></svg>
